images/collx-bg-2.svg

<svg fill="none" height="500" viewBox="0 0 700 500" width="700" xmlns="http://www.w3.org/2000/svg"><path d="m124.73 580.661c22.477-45.102 71.903-93.515 132.109-118.217 60.205-24.702 150.291-46.113 206.81-74.526 85.199-42.861 127.799-88.043 166.727-154.795s88.946-184.609 109.01-255.123c68.956 97.3569 64.336 255.533 41.459 362.355-3.213 15.007-7.611 30.344-20.241 42.83-10.365 10.245-25.498 17.769-40.32 25.092l-430.322 212.473c-35.226 17.398-77.707 35.717-119.404 27.013-40.083-8.344-61.183-44.251-40.482-68.903" fill="#0575db"/><path d="m0 688s99.9941-215.944 359.831-238.794c259.837-22.85 352.607-130.198 373.568-157.634s96.871-145.874 221.601-148.572v545z" fill="#0086ff"/></svg>

<svg width="700" height="500" viewBox="0 0 700 500" fill="none" xmlns="http://www.w3.org/2000/svg"><path d="M124.73 580.661C147.207 535.559 196.633 487.146 256.839 462.444C317.044 437.742 407.13 416.331 463.649 387.918C548.848 345.057 591.448 299.875 630.376 233.123C669.304 166.371 719.322 48.514 739.386 -22C808.342 75.3569 803.722 233.533 780.845 340.355C777.632 355.362 773.234 370.699 760.604 383.185C750.239 393.43 735.106 400.954 720.284 408.277L289.962 620.75C254.736 638.148 212.255 656.467 170.558 647.763C130.475 639.419 109.375 603.512 130.076 578.86" fill="#0575DB"/><path d="M0 688C0 688 99.9941 472.056 359.831 449.206C619.668 426.356 712.438 319.008 733.399 291.572C754.36 264.136 830.27 145.698 955 143V688H0Z" fill="#0086FF"/></svg>
